img/delete2.svg

<svg fill="none" height="800" viewBox="0 0 24 24" width="800" xmlns="http://www.w3.org/2000/svg">
    <path clip-rule="evenodd"
          d="m6.87114 19.4986c.92971.5014 2.04344.5014 4.27086.5014h2.637c3.8754 0 5.8131 0 7.0171-1.1716 1.2039-1.1715 1.2039-3.0572 1.2039-6.8284 0-3.77124 0-5.65685-1.2039-6.82843-1.204-1.17157-3.1417-1.17157-7.0171-1.17157h-2.637c-2.22742 0-3.34115 0-4.27086.50143-.9297.50143-1.51997 1.42048-2.70053 3.25858l-.6808 1.06c-.99321 1.54639-1.48981 2.31959-1.48981 3.17999s.4966 1.6336 1.48981 3.18l.6808 1.06c1.18056 1.8381 1.77083 2.7571 2.70053 3.2586zm4.15916-10.52893c-.2929-.29289-.7678-.29289-1.06065 0-.29289.29289-.29289.76777 0 1.06063l1.96965 1.9697-1.96963 1.9697c-.29289.2929-.29289.7677 0 1.0606.29293.2929.76773.2929 1.06063 0l1.9697-1.9696 1.9696 1.9696c.2929.2929.7678.2929 1.0607 0s.2929-.7678 0-1.0606l-1.9697-1.9697 1.9697-1.9696c.2929-.29294.2929-.76782 0-1.06071s-.7678-.29289-1.0607 0l-1.9696 1.96971z"
          fill="#ffffff" fill-rule="evenodd"/>
</svg>

<?xml version="1.0" encoding="UTF-8" standalone="no"?>
<svg width="100%" height="100%" viewBox="0 0 800 800" version="1.1" xmlns="http://www.w3.org/2000/svg"
     style="fill-rule:evenodd;clip-rule:evenodd;stroke-linejoin:round;stroke-miterlimit:2;">
    <g transform="matrix(25,0,0,25,99.9996,99.9996)">
        <path fill="black" d="M6.871,19.499C7.801,20 8.915,20 11.142,20L13.779,20C17.654,20 19.592,20 20.796,18.828C22,17.657 22,15.771 22,12C22,8.229 22,6.343 20.796,5.172C19.592,4 17.654,4 13.779,4L11.142,4C8.915,4 7.801,4 6.871,4.501C5.941,5.003 5.351,5.922 4.171,7.76L3.49,8.82C2.497,10.366 2,11.14 2,12C2,12.86 2.497,13.634 3.49,15.18L4.171,16.24C5.351,18.078 5.941,18.997 6.871,19.499ZM11.03,8.97C10.737,8.677 10.263,8.677 9.97,8.97C9.677,9.263 9.677,9.737 9.97,10.03L11.939,12L9.97,13.97C9.677,14.263 9.677,14.737 9.97,15.03C10.263,15.323 10.737,15.323 11.03,15.03L13,13.061L14.97,15.03C15.262,15.323 15.737,15.323 16.03,15.03C16.323,14.737 16.323,14.262 16.03,13.97L14.061,12L16.03,10.03C16.323,9.737 16.323,9.263 16.03,8.97C15.737,8.677 15.262,8.677 14.97,8.97L13,10.939L11.03,8.97Z"/>
    </g>
</svg>
